!!! OTL: Literature146
!!! Chapter: 5
!!! Section: IV
!!! Page: 379
!!! Mode: 
!!! Encoder: DJB
**kern
*staff1
*I"Piano
=1-
*clefG2
*k[b-e-a-d-]
*A-:
*M4/4
4r
4r
4r
8r
8e-/
=2
4..a-/
16a-/
4..a-/
16cc-\
=3
2cc-\
8g-/
8r
8.cc-\L
16dd-\Jk
=4
4ddn\
4f#/
4..g/
16bn\
=5
2an/
4r
8.a/L
16b-/Jk
=6
4..cc\
16cc\
4cc\
8.ddn\L
16een\Jk
=7
!!linebreak:original
4ff\
8f/
8r
4ff\
8.dd-\L
16b-\Jk
=8
2.ee-\
4g/
=9
4a-/
4r
2r
==
*-
